X:1
T:Fault il que pour nostre
T:Antoine Gardane
T:Source : Livre XXV de 28 chansons nouvelles à 4 parties---Paris---P.Attaingnant---1547. Editor : André Vierendeels (24/07/18) Notes : Original clefs : C1, C3, C4, F4 Original note values have been halved Original note values have been quartered in 3-beat measures Editorial accidentals above the staff Dotted bracket indicate black notes
T:Fault il que pour nostre
T:©
T:©
C:Antoine Gardane
Z:©
%%score [ 1 [ 2 3 ] 4 ]
L:1/8
Q:1/4=120
M:2/2
K:F
V:1 treble nm="Alto" snm="A"
V:2 treble-8 nm="Tenor 1" snm="T 1"
V:3 treble-8 nm="Tenor 2" snm="T 2"
V:4 bass nm="Bass" snm="B"
V:1
 F4 G2 A2 | B6 A2 | G2 F4 E2 | F4 B4 | B2 B2 BAGF | G2 B2 A2 G2- |"^#" G2 F2 G4 | z4 G4 | %8
w: Fault il que|pour no-|stre bon- *|té, ung|ser- vi- teur _ _ _|_ faict es- hon-|* * té,|sur|
 G2 G2 FEFG | AGFE F2 A2 | G2 F4 E2 |[M:3/4] F4 z2 |: B2 B2 B2 | G4 B2 | A4 G2 | F2 G2 z2 | %16
w: nous se pro- * * *|* * * * mect u-|ne'au- da- *|ce,|tant qu'il veult|que pour|luy on|fa- ce|
 F2 G2 A2 | B3 A G2 | F4 E2 |[M:2/2] F4 z4 | F4 G2 A2 | B6 A2 | G2 F4 E2 | F8 :| %24
w: cho- se'où l'hon-|neur n'est rien|com- *|pte,|cho- se'où l'hon-|neur nest|rien com- *|pte.|
V:2
 d4 e2 e2 | f6 f2 | d2 cB c2 c2 | A4 d4 | g2 g2 fedc | B2 f2 e2 c2 | d8 | z4 d4 | d2 d2 d2 A2- | %9
w: Fault il que|pour no-|stre _ _ _ bon-|té, ung|ser- vi- teur _ _ _|_ faict es- hon-|té|sur|nous se pro- mect|
 ABcB AG F2 | G2 c2 c4 |[M:3/4] c4 z2 |: d2 d2 d2 | c4 d2 | c2 d4 | d2 B2 z2 | d2 d2 f2 | f3 e d2 | %18
w: _ _ _ _ _ _ _|u- ne'au- da-|ce,|tant qu'il veult|que pour|luy on|fa- ce,|cho- se'où l'hon-|neur _ _|
 c2 c2 c2 |[M:2/2] B4 z4 | c4 e2 f2 | g2 f2 f3 e | d2 B2 c4- | c8 :| %24
w: n'est rien com-|pte,|cho- se'où l'hon-|neur n'et rien _|_ com- pte.|_|
V:3
 A4 c2 c2 | d6 c2 | BAGF G2 G2 | F4 G4 | d2 d2 dcBA | G2 d2 cBAG | A2 A2 G4 | z4 B4 | B2 B2 A2 d2 | %9
w: Fault il que|pour no-|stre _ _ _ _ bon-|té, ung|ser- vi- teur _ _ _|_ faict es- * * *|* hon- té,|sur|nous se pro- mect|
 cBAG F2 c2- | cB A2 G4 |[M:3/4] F4 z2 |: F2 F2 G2 | E4 F2 | A4 B2 | A2 G2 z2 | A2 B2 c2 | %17
w: u- * * * * ne'au-|* * * da-|ce,|tant qu'il veult|que pour|luy on|fa- ce|cho- se'où l'hon-|
 d3 c B2 | A2 G2 G2 |[M:2/2] F4 z4 | A4 c2 c2 | d6 c2 | BAGF G2 G2 | F8 :| %24
w: neur _ _|n'est rien com-|pte,|cho- se'où l'hon-|neur nest|rien _ _ _ _ com-|pte.|
V:4
 D,4 C,2 C,2 | B,,3 C, D,E, F,2 | B,,2 D,2 C,4 | F,,4 z4 | G,,4 D,2 D,2 | %5
w: Fault il que|pour _ _ _ _|no- stre bon-|té,|ung ser- vi-|
"^b""^b" E,2 B,,2 C,D, E,2 | D,4 G,,4 | z4 G,,4 | G,,2 G,,2 D,C,D,E, | F,2 C,2 D,2 F,2 | %10
w: teur faict _ _ es-|hon- té,|sur|nous se pro- * * *|* mect u- ne'au-|
 E,2 F,2 C,4 |[M:3/4] F,,4 z2 |: B,,2 B,,2 G,,2 | C,4 B,,2 | F,4 G,2 | D,2 G,,2 z2 | D,2 G,2 F,2 | %17
w: * * da-|ce,|tant qu'il veult|que pour|luy on|fa- ce|cho- se'où l'hon-|
 B,,4 B,,2 | F,,2 C,4 |[M:2/2] F,,4 z4 | F,,4 C,2 A,,2 | G,,A,,B,,C, D,E, F,2 | B,,2 D,2 C,4 | %23
w: neur n'est|rien com-|pte,|cho- se'où l'hon-|neur _ _ _ _ _ _|nest rien com-|
 F,,8 :| %24
w: pte.|

